icons/evolvere-blue-folders-flat-vivid-dark-fallback/apps/64/cherrytree.svg

<?xml version="1.0" encoding="UTF-8" standalone="no"?>
<!-- Created with Inkscape (http://www.inkscape.org/) -->

<svg
   xmlns:dc="http://purl.org/dc/elements/1.1/"
   xmlns:cc="http://creativecommons.org/ns#"
   xmlns:rdf="http://www.w3.org/1999/02/22-rdf-syntax-ns#"
   xmlns:svg="http://www.w3.org/2000/svg"
   xmlns="http://www.w3.org/2000/svg"
   xmlns:sodipodi="http://sodipodi.sourceforge.net/DTD/sodipodi-0.dtd"
   xmlns:inkscape="http://www.inkscape.org/namespaces/inkscape"
   width="64"
   height="64"
   id="svg13094"
   version="1.1"
   inkscape:version="0.91+devel r"
   sodipodi:docname="cherrytree.svg">
  <sodipodi:namedview
     id="base"
     pagecolor="#ffffff"
     bordercolor="#666666"
     borderopacity="1.0"
     inkscape:pageopacity="0"
     inkscape:pageshadow="2"
     inkscape:zoom="8.0000004"
     inkscape:cx="55.406988"
     inkscape:cy="26.147009"
     inkscape:document-units="px"
     inkscape:current-layer="g4248"
     showgrid="false"
     inkscape:snap-bbox="true"
     inkscape:bbox-paths="true"
     inkscape:bbox-nodes="true"
     inkscape:snap-bbox-edge-midpoints="true"
     inkscape:snap-bbox-midpoints="true"
     inkscape:object-paths="true"
     inkscape:snap-intersection-paths="true"
     inkscape:object-nodes="true"
     inkscape:snap-smooth-nodes="true"
     inkscape:snap-midpoints="true"
     inkscape:snap-object-midpoints="true"
     inkscape:snap-center="true"
     showguides="false"
     inkscape:guide-bbox="true"
     inkscape:window-width="1920"
     inkscape:window-height="1023"
     inkscape:window-x="-10"
     inkscape:window-y="35"
     inkscape:window-maximized="1"
     inkscape:snap-global="false"
     fit-margin-top="0"
     fit-margin-left="0"
     fit-margin-right="0"
     fit-margin-bottom="0"
     showborder="true"
     inkscape:showpageshadow="false"
     inkscape:snap-page="true">
    <inkscape:grid
       type="xygrid"
       id="grid3075"
       empspacing="5"
       visible="true"
       enabled="true"
       snapvisiblegridlinesonly="true"
       originx="1.6362304e-08px"
       originy="18px" />
    <sodipodi:guide
       orientation="0,1"
       position="-11,30"
       id="guide9148" />
    <sodipodi:guide
       orientation="1,0"
       position="32,70"
       id="guide9150" />
  </sodipodi:namedview>
  <defs
     id="defs13096" />
  <metadata
     id="metadata13099">
    <rdf:RDF>
      <cc:Work
         rdf:about="">
        <dc:format>image/svg+xml</dc:format>
        <dc:type
           rdf:resource="http://purl.org/dc/dcmitype/StillImage" />
        <dc:title></dc:title>
      </cc:Work>
    </rdf:RDF>
  </metadata>
  <path
     id="path6538"
     d="m 0,4 0,30 0,28 2,2 30,0 30,0 2,-2 L 64,34 64,4 32,4 0,4 Z"
     style="color:#000000;display:inline;overflow:visible;visibility:visible;fill:#aeb4c3;fill-opacity:1;fill-rule:nonzero;stroke:none;stroke-width:2.28571415;marker:none;enable-background:accumulate"
     inkscape:connector-curvature="0" />
  <path
     inkscape:connector-curvature="0"
     style="color:#000000;display:inline;overflow:visible;visibility:visible;fill:#e7ecf0;fill-opacity:1;fill-rule:nonzero;stroke:none;marker:none;enable-background:accumulate"
     d="M 2,0 0,1 0,4 19.5625,4 39.125,4 64,4 64,1 62,0 39.125,0 19.5625,0 2,0 Z"
     id="path6688" />
  <g
     id="g3043"
     inkscape:export-filename="folder.png"
     inkscape:export-xdpi="90"
     inkscape:export-ydpi="90"
     transform="translate(-0.62500009,0.082283)" />
  <g
     id="scalable"
     transform="matrix(1.0385892,0,0,1.0385892,1214.7222,1878.8121)"
     inkscape:label="#g3701"
     style="fill:#ffffff" />
  <path
     style="opacity:1;fill:#f2f5f7;fill-opacity:1;fill-rule:nonzero;stroke-width:1;stroke-linecap:butt;stroke-linejoin:miter;stroke-miterlimit:4;stroke-dasharray:none;stroke-dashoffset:0;stroke-opacity:1"
     d="M 0,3 0,6 2,4 Z"
     id="path4298"
     inkscape:connector-curvature="0"
     sodipodi:nodetypes="cccc" />
  <path
     inkscape:connector-curvature="0"
     style="opacity:1;fill:#ccd1db;fill-opacity:1;stroke:none;stroke-width:1;stroke-linecap:butt;stroke-linejoin:miter;stroke-miterlimit:4;stroke-dasharray:none;stroke-dashoffset:0;stroke-opacity:1;marker:none"
     id="path3028"
     d="M 64,6 62,4 64,3 Z" />
  <g
     id="g4248">
    <path
       sodipodi:nodetypes="sssssss"
       inkscape:connector-curvature="0"
       id="path3784"
       d="m 62.313782,47.47364 c 0,11.748687 -9.635979,17.964007 -21.522564,13.882302 -11.886581,-4.081703 -21.52256,-16.91477 -21.52256,-28.663458 0,-7.029055 3.039688,-11.722529 7.952408,-12.558957 5.167735,-0.879846 7.896273,2.820553 13.769901,4.338115 4.375542,1.130508 8.912631,0.405773 13.577933,4.998167 4.798317,4.723333 7.744882,10.595527 7.744882,18.003831 z"
       style="color:#000000;fill:#4d0000;fill-opacity:0.12880144;fill-rule:nonzero;stroke:none;stroke-width:2;marker:none;visibility:visible;display:inline;overflow:visible;enable-background:accumulate"
       transform="translate(-0.17677669,-1.2374368)" />
    <path
       sodipodi:nodetypes="ccccc"
       inkscape:connector-curvature="0"
       id="path3854"
       d="M 9.2702107,1.2930513 8.5836306,2.6153547 C 19.558366,5.8122719 26.637564,16.174878 28.84375,20.96875 L 29.6875,20.4375 C 26.623239,15.721757 21.809764,5.1173306 9.2702107,1.2930513 z"
       style="font-size:medium;font-style:normal;font-variant:normal;font-weight:normal;font-stretch:normal;text-indent:0;text-align:start;text-decoration:none;line-height:normal;letter-spacing:normal;word-spacing:normal;text-transform:none;direction:ltr;block-progression:tb;writing-mode:lr-tb;text-anchor:start;baseline-shift:baseline;color:#000000;fill:#68933e;fill-opacity:1;stroke:none;stroke-width:1px;marker:none;visibility:visible;display:inline;overflow:visible;enable-background:accumulate;font-family:Sans;-inkscape-font-specification:Sans"
       transform="translate(-0.17677669,-1.2374368)" />
    <path
       style="font-size:medium;font-style:normal;font-variant:normal;font-weight:normal;font-stretch:normal;text-indent:0;text-align:start;text-decoration:none;line-height:normal;letter-spacing:normal;word-spacing:normal;text-transform:none;direction:ltr;block-progression:tb;writing-mode:lr-tb;text-anchor:start;baseline-shift:baseline;color:#000000;fill:#1f272c;fill-opacity:0.10465116;stroke:none;stroke-width:1px;marker:none;visibility:visible;display:inline;overflow:visible;enable-background:accumulate;font-family:Sans;-inkscape-font-specification:Sans"
       d="m 18.150908,9.979309 -0.890406,1.194595 c 3.205412,2.668491 7.326584,7.277113 9.508198,11.011238 l 0.658431,0.106415 C 25.007427,17.374455 21.209054,12.921433 18.150908,9.979309 z"
       id="path3838"
       inkscape:connector-curvature="0"
       sodipodi:nodetypes="ccccc"
       transform="translate(-0.17677669,-1.2374368)" />
    <path
       style="color:#000000;display:inline;overflow:visible;visibility:visible;fill:#cf4828;fill-opacity:1;fill-rule:nonzero;stroke:none;stroke-width:2;marker:none;enable-background:accumulate"
       d="M 51.113418,28.061924 C 53.486723,38.185153 47.107848,48.338178 36.865799,50.739339 26.623754,53.1405 16.396991,46.880525 14.023686,36.757296 c -1.419911,-6.056569 0.04027,-11.614105 3.76356,-14.780781 3.916566,-3.331055 6.825839,-1.501112 11.785962,-3.1179 3.69503,-1.204418 7.14328,-4.087833 11.767202,-2.453591 4.755759,1.68084 8.276486,5.273552 9.773008,11.6569 z"
       id="path3815"
       inkscape:connector-curvature="0"
       sodipodi:nodetypes="sssssss" />
  </g>
</svg>

<svg xmlns="http://www.w3.org/2000/svg" viewBox="0 0 64 64"><g color="#000"><path d="m0 4v30 28l2 2h30 30l2-2v-28-30h-32-32" fill="#aeb4c3"/><path d="m2 0l-2 1v3h19.563 19.563 24.875v-3l-2-1h-22.875-19.563-17.563" fill="#e7ecf0"/></g><path d="m0 3v3l2-2" fill="#f2f5f7"/><path d="m64 6l-2-2 2-1" fill="#ccd1db"/><g color="#000"><g transform="translate(-.177-1.237)"><path d="m62.31 47.47c0 11.749-9.636 17.964-21.523 13.882-11.887-4.082-21.523-16.915-21.523-28.663 0-7.03 3.04-11.723 7.952-12.559 5.168-.88 7.896 2.821 13.77 4.338 4.376 1.131 8.913.406 13.578 4.998 4.798 4.723 7.745 10.596 7.745 18" fill="#4d0000" fill-opacity=".129"/><path d="m9.27 1.293l-.687 1.322c10.975 3.197 18.05 13.56 20.26 18.353l.844-.531c-3.064-4.716-7.878-15.32-20.417-19.14" fill="#68933e"/><path d="m18.15 9.979l-.89 1.195c3.205 2.668 7.327 7.277 9.508 11.01l.658.106c-2.42-4.917-6.218-9.37-9.276-12.312" fill-opacity=".105" fill="#1f272c"/></g><path d="m51.11 28.06c2.373 10.123-4.01 20.276-14.248 22.677-10.242 2.401-20.469-3.859-22.842-13.982-1.42-6.06.04-11.614 3.764-14.781 3.917-3.331 6.826-1.501 11.786-3.118 3.695-1.204 7.143-4.088 11.767-2.454 4.756 1.681 8.276 5.274 9.773 11.657" fill="#cf4828"/></g></svg>
